icon-svg/youtube-kids.svg

<?xml version="1.0" encoding="UTF-8" standalone="no"?>
<svg width="24" height="24" viewBox="0 0 24 24" version="1.1" id="svg125"
    xmlns="http://www.w3.org/2000/svg"
    xmlns:svg="http://www.w3.org/2000/svg">
    <path id="path364" style="fill-rule:nonzero;stroke:none;stroke-width:1.173;fill:#44739e;fill-opacity:1" d="M 18.263672,2.7363281 C 17.521644,2.721164 5.5821734,4.2614954 4.1367188,4.8027344 3.0579893,5.2064813 2.2116983,5.7247591 1.546875,6.3925781 0.4660009,7.4794209 0.25812017,8.5372958 0.4296875,10.394531 c 0.15655516,1.682642 0.9303797,7.267377 1.3164063,8.421875 0.4267736,1.276713 1.2124791,2.25681 2.5078124,2.396485 3.9524817,0.432117 4.8846445,-1.777454 14.0742188,-1.757813 2.783679,0.0065 4.167245,-1.230481 4.744141,-2.308594 0.673401,-1.267982 0.543926,-2.936664 0.533203,-3.818359 C 23.590459,12.171445 22.934396,6.6948918 22.619141,5.84375 22.415405,5.2937813 21.985479,4.2907637 21.185547,3.6796875 20.162577,2.8983829 19.32739,2.7582651 18.263672,2.7363281 Z M 9.5449219,8.7128906 c 0.1688864,-0.0089 0.3965997,0.06624 0.4882811,0.095703 0.714149,0.2291536 4.291254,1.4987492 5.404297,2.0683592 0.03217,0.01746 0.069,0.03159 0.105469,0.04687 0.158699,0.06766 0.376553,0.161022 0.380859,0.431641 0.0021,0.257524 -0.193053,0.37663 -0.349609,0.472656 -0.03003,0.01746 -0.06001,0.03723 -0.08789,0.05469 -0.231616,0.157132 -0.459982,0.315294 -0.689453,0.47461 -0.531858,0.368829 -3.628906,2.511719 -3.628906,2.511719 -0.263785,0.202964 -0.760494,0.522267 -0.949219,0.421875 -0.188723,-0.10257 -0.2537917,-0.794767 -0.2988281,-1.13086 l -0.011719,-0.07422 C 9.8524422,13.682194 9.4069388,9.8374511 9.3554688,9.4140625 9.3404588,9.2940297 9.2672329,8.8542973 9.4023438,8.7539062 9.4382656,8.7271717 9.4886264,8.7158573 9.5449219,8.7128906 Z M 17.965623,3.1590273 h 0.01072 c 1.016538,0.019642 1.812182,0.1571341 2.787972,0.9013385 0.763475,0.5827054 1.175237,1.5386042 1.36825,2.0645667 0.300243,0.8118592 0.926464,6.0387485 0.941477,7.1430515 0.01072,0.840231 0.135109,2.433396 -0.510414,3.642455 -0.546871,1.025736 -1.863651,2.202059 -4.50579,2.202059 -0.0065,0 -0.01287,0 -0.0193,0 -0.04075,0 -0.07935,0 -0.120097,0 -7.881382,0 -9.3311263,1.728475 -12.3614371,1.728475 -0.2980985,0 -0.6112092,-0.01746 -0.9457658,-0.05238 C 3.3759534,20.653284 2.6274903,19.71921 2.2200174,18.501421 1.8511474,17.3993 1.1134072,12.07202 0.96328561,10.46576 0.79815194,8.6936377 0.99759912,7.6853609 2.0291486,6.6487127 2.6618038,6.0114469 3.4703155,5.5160381 4.501865,5.1319326 5.8701157,4.6168822 17.161401,3.1590273 17.965623,3.1590273 Z m 0,-0.9275273 c -0.510413,0 -3.847401,0.4146593 -6.641806,0.8009472 C 8.5272671,3.4187351 5.0208566,3.94688 4.1844652,4.2589657 3.0306739,4.6910843 2.1149323,5.2563304 1.3879152,5.9874402 0.04968877,7.3318093 -0.11330034,8.7307388 0.05397795,10.553057 c 0.13082021,1.412024 0.87499415,6.975006 1.30176835,8.247355 0.574751,1.717563 1.6942289,2.749846 3.1546971,2.909163 0.3602917,0.03928 0.7034267,0.05892 1.0444171,0.05892 1.2803223,0 2.294715,-0.277167 3.4699521,-0.597983 1.8486404,-0.504138 4.1476444,-1.130492 8.8936294,-1.130492 h 0.117953 0.02145 c 1.162369,0 4.008245,-0.26189 5.30358,-2.686556 0.692704,-1.296355 0.651956,-2.869878 0.628366,-3.8105 -0.0021,-0.104756 -0.0043,-0.200782 -0.0065,-0.288079 C 23.968341,12.133128 23.33783,6.7600159 22.983972,5.7975699 22.574355,4.6867195 22.010327,3.8530361 21.309044,3.3183438 20.165976,2.4453769 19.194475,2.2555066 17.995647,2.2315 h -0.0086 z" />
</svg>

<svg xmlns="http://www.w3.org/2000/svg" viewBox="0 0 24 24"><path fill="#44739e" d="M18.2637 2.7363c-.742-.0151-12.6815 1.5252-14.127 2.0664-1.0787.4038-1.925.922-2.5898 1.5899C.466 7.4794.258 8.5373.4297 10.3946c.1565 1.6826.9304 7.2673 1.3164 8.4218.4268 1.2767 1.2125 2.2568 2.5078 2.3965 3.9525.4321 4.8847-1.7775 14.0742-1.7578 2.7837.0065 4.1673-1.2305 4.7442-2.3086.6734-1.268.5439-2.9367.5332-3.8184-.015-1.1567-.6711-6.6332-.9864-7.4843-.2037-.55-.6336-1.553-1.4336-2.1641-1.023-.7813-1.8581-.9214-2.9218-.9434M9.5449 8.713c.169-.009.3966.0662.4883.0957.7142.2291 4.2913 1.4987 5.4043 2.0684.0322.0174.069.0315.1055.0468.1587.0677.3765.161.3808.4317.0021.2575-.193.3766-.3496.4726-.03.0175-.06.0372-.0879.0547-.2316.1571-.46.3153-.6894.4746-.5319.3688-3.629 2.5117-3.629 2.5117-.2637.203-.7604.5223-.9491.422-.1888-.1027-.2538-.7949-.2989-1.131l-.0117-.0742c-.0558-.4037-.5013-4.2484-.5527-4.6718-.015-.12-.0883-.5598.0468-.6602.036-.0267.0863-.038.1426-.041m8.4207-5.5539h.0107c1.0166.0197 1.8122.1572 2.788.9014.7635.5827 1.1753 1.5386 1.3683 2.0645.3002.8119.9264 6.0388.9414 7.143.0108.8403.1352 2.4335-.5104 3.6425-.5468 1.0258-1.8636 2.2021-4.5058 2.2021h-.1393c-7.8814 0-9.3312 1.7285-12.3615 1.7285-.298 0-.6112-.0175-.9458-.0524-1.2352-.1353-1.9837-1.0694-2.3912-2.2872-.3689-1.1021-1.1066-6.4294-1.2567-8.0356-.1651-1.7722.0343-2.7804 1.0658-3.817.6327-.6374 1.4412-1.1328 2.4728-1.5169C5.87 4.617 17.1614 3.159 17.9656 3.159m0-.9275c-.5104 0-3.8474.4147-6.6418.801-2.7965.3862-6.303.9144-7.1393 1.2265-1.1538.432-2.0696.9973-2.7966 1.7284C.0497 7.3318-.1133 8.7307.054 10.5531c.1309 1.412.875 6.975 1.3018 8.2473.5748 1.7176 1.6943 2.7499 3.1547 2.9092a9.6 9.6 0 0 0 1.0445.0589c1.2803 0 2.2947-.2772 3.47-.598 1.8486-.5041 4.1476-1.1305 8.8935-1.1305h.1394c1.1624 0 4.0083-.2619 5.3036-2.6865.6927-1.2964.652-2.87.6284-3.8105a56 56 0 0 0-.0065-.2881c-.015-1.1218-.6455-6.4949-.9993-7.4573-.4096-1.1109-.9737-1.9446-1.675-2.4793-1.143-.873-2.1145-1.0628-3.3134-1.0868h-.0086z"/></svg>
